X: 200888
T: Tinker's Reel
S: "First Collection of Traditional Irish Music" (M.Mulvihill)
Z: B.Black
L: 1/8
M: 4/4
R: reel
K: Em
G2 BG dGBG|ABcA GE (3EDE|(3Bcd ef gfed|B2 Ac BE (3EDE|
G2 BG dGBG|ABcA GE (3EDE|(3Bcd ef gfed|B2 cA BE E2||
gfga bgef|g2 ag fd d2|gfga bgef|gefd Beef|
gfga bgef|g2 ag fddg|bgaf gfed|B2 cA BE E2||
